X:20
T:The Dog and Gun Troop
S:Ashworth's Instructor, p. 35
M:C|
%%MIDI program 72
%%MIDI transpose 8
L:1/8
K:D
|:A2|d2 d>d d>AF>A|d2 d>d d3e|fefg afed|c>de>e e2::
e2|fddf geeg|afec A2c>d|e>cA>c e>aa>g|f2 d>d d2:|]

